X: 1561
T: Angry Peeler, The
R: jig
M: 6/8
K: Eminor
|~B3GED|DDD GED|~G3 AGD|EAA ABc|
~B3GED|DDD GED|~G3 AGE|~G3 G2A:|
|:B2A Bcd|ege dBA|~G3 AGE|EAA ABc|
B2A Bcd|ege dBA|~G3 AGE|1 ~G3 G2A:|2 ~G3 G3||

